icons/haml.svg

<svg width="16" height="16" viewBox="0 0 16 16" fill="none" xmlns="http://www.w3.org/2000/svg">
<path d="M5.53418 2.10805L5.74129 2.52227C5.28981 2.66478 4.74985 2.87102 4.26834 3.07636L4.03418 2.60805C4.03418 2.60805 3.80485 2.35116 4.53418 2.10805C5.26352 1.86494 5.53418 2.10805 5.53418 2.10805Z" fill="#C8BC79"/>
<path fill-rule="evenodd" clip-rule="evenodd" d="M4.64552 3.83073C5.15101 3.64129 5.6931 3.45769 6.14157 3.32282L7.53418 6.10805L10.0132 4.24882C10.5292 4.6636 11.1494 5.21246 11.6494 5.68512L10.9489 6.22992C10.9495 6.36634 10.959 6.5204 10.9802 6.68024C11.043 7.15427 11.1911 7.55789 11.3877 7.7545L11.4061 7.77284C11.6482 8.0147 12.0804 8.44654 12.3063 8.97359C12.4269 9.25517 12.4997 9.5867 12.4419 9.94548C12.3834 10.3081 12.1992 10.6502 11.8877 10.9616C11.4351 11.4142 10.8561 11.487 10.3125 11.378C9.78585 11.2724 9.24441 10.9913 8.74644 10.663C8.55478 10.5366 8.36382 10.3993 8.17623 10.2558L7.53418 14.108C7.03418 14.2747 5.73418 14.308 4.53418 13.108C4.86072 12.1285 5.65372 9.97156 6.20601 8.48696C6.19747 8.47843 6.18901 8.46998 6.18063 8.4616L6.23608 8.40615C6.34837 8.10451 6.44982 7.83303 6.53418 7.60805L4.64552 3.83073ZM8.36455 9.12583C8.66712 9.3785 8.98268 9.62092 9.29693 9.82813C9.75313 10.1289 10.1679 10.3291 10.509 10.3975C10.8331 10.4625 11.0333 10.4019 11.1806 10.2545C11.3692 10.0659 11.435 9.90802 11.4546 9.78625C11.4749 9.66065 11.4539 9.52343 11.3871 9.36751C11.2438 9.03315 10.9426 8.72362 10.6806 8.4616C10.2841 8.06508 10.0951 7.46673 10.0109 6.95949L8.53418 8.10805L8.36455 9.12583Z" fill="#C8BC79"/>
<path d="M12.5477 4.98644L13.0342 4.60805C13.0342 4.60805 13.0342 4.10805 12.5342 3.60805C12.0342 3.10805 11.5342 3.10805 11.5342 3.10805L10.8588 3.61458C11.4119 4.00859 12.096 4.5547 12.5477 4.98644Z" fill="#C8BC79"/>
</svg>

<svg xmlns="http://www.w3.org/2000/svg" width="16" height="16" fill="none"><path fill="#C8BC79" d="m5.534 2.108.207.414c-.451.143-.991.349-1.473.554l-.234-.468s-.23-.257.5-.5 1 0 1 0Z"/><path fill="#C8BC79" fill-rule="evenodd" d="M4.646 3.83c.505-.189 1.047-.372 1.496-.507l1.392 2.785 2.48-1.86c.515.416 1.135.964 1.635 1.437l-.7.545c0 .136.01.29.031.45.063.474.211.878.408 1.075l.018.018c.242.242.674.674.9 1.2.12.282.194.614.136.972-.059.363-.243.705-.554 1.017-.453.452-1.032.525-1.575.416-.527-.106-1.069-.387-1.567-.715a10.054 10.054 0 0 1-.57-.407l-.642 3.852c-.5.167-1.8.2-3-1 .327-.98 1.12-3.136 1.672-4.621l-.025-.025.055-.056.298-.798-1.888-3.777Zm3.719 5.296c.302.253.618.495.932.702.456.3.87.501 1.212.57.324.065.524.004.672-.143.188-.19.254-.347.274-.469a.75.75 0 0 0-.068-.418c-.143-.335-.444-.644-.706-.906-.397-.397-.586-.995-.67-1.503L8.534 8.11l-.17 1.017Z" clip-rule="evenodd"/><path fill="#C8BC79" d="m12.548 4.986.486-.378s0-.5-.5-1-1-.5-1-.5l-.675.507c.553.394 1.237.94 1.689 1.371Z"/></svg>
